documentation/settimbre_block.svg

<?xml version="1.0" encoding="UTF-8" standalone="no"?>
<svg
   width="335.5"
   height="223.5"
   version="1.1"
   id="svg144"
   xmlns="http://www.w3.org/2000/svg"
   xmlns:svg="http://www.w3.org/2000/svg">
  <defs
     id="defs148" />
  <g
     transform="translate(0, 0)"
     id="g14">
    <g
       transform="scale(1.5, 1.5)"
       id="g12">
      <path
         d="m 0.5,8.5 v -4 c 0,-2.209139 1.790861,-4 4,-4 h 4 v 2 h 10 v -2 h 9 54.333333 4 c 2.209139,0 4,1.790861 4,4 v 4 h -4 v -3 h -4 v 10 h 4 v -3 h 4 v 4 c 0,2.209139 -1.790861,4 -4,4 h -4 H 27.5 h -1 v 2 h -8 v -2 h -1 -4 c -2.761424,0 -5,2.238576 -5,5 v 4 4 84 4 c 0,2.76142 2.238576,5 5,5 h 4 v 2 h 10 v -2 h 8 v 6 6 4 c 0,2.20914 -1.790861,4 -4,4 h -4 -9 -1 v 2 h -8 v -2 h -1 -4 c -2.209139,0 -4,-1.79086 -4,-4 v -4 z"
         style="fill:#3edcdd;fill-opacity:1;stroke:#1dbcbd;stroke-width:1;stroke-linecap:round;stroke-opacity:1"
         id="path2" />
      <text
         style="font-size:10px;fill:#282828;font-family:sans-serif;text-anchor:start"
         id="text6"><tspan
           x="5"
           y="15"
           id="tspan4">set instrument</tspan></text>
      <text
         style="font-size:6.666666666666667px;fill:#282828;font-family:sans-serif;text-anchor:end"
         id="text10"><tspan
           x="66"
           y="12"
           id="tspan8" /></text>
    </g>
  </g>
  <g
     transform="translate(124)"
     id="g24">
    <g
       transform="scale(1.5)"
       id="g22">
      <path
         d="m 8.5,0.5 h 110 v 20 H 8.5 v -8 -1 h -6 v 3 h -2 v -8 h 2 v 3 h 6 v -1 z"
         style="fill:#3edcdd;fill-opacity:1;stroke:#1dbcbd;stroke-width:1;stroke-linecap:round;stroke-opacity:1"
         id="path16" />
      <text
         style="font-size:10px;font-family:sans-serif;text-anchor:start;fill:#282828"
         id="text20"><tspan
           x="13"
           y="14"
           id="tspan18">guitar</tspan></text>
    </g>
  </g>
  <g
     id="g56">
    <g
       transform="translate(14, 32)"
       id="g38">
      <g
         transform="scale(1.5, 1.5)"
         id="g36">
        <path
           d="m0.5 8.5 L 0.5 4.5 A 4 4 90 0 1 4.5 0.5 L 8.5 0.5 L 8.5 2.5 L 18.5 2.5 L 18.5 0.5 L 27.5 0.5 L 87.5 0.5 L 91.5 0.5 A 4 4 90 0 1 95.5 4.5 L 95.5 8.5 L 91.5 8.5 L 91.5 5.5 L 87.5 5.5 L 87.5 15.5 L 91.5 15.5 L 91.5 12.5 L 95.5 12.5 L 95.5 16.5 A 4 4 90 0 1 91.5 20.5 L 87.5 20.5 L 27.5 20.5 L 26.5 20.5 L 26.5 22.5 L 18.5 22.5 L 18.5 20.5 L 17.5 20.5 L 13.5 20.5 A 5 5 90 0 0 8.5 25.5 L 8.5 29.5 L 8.5 33.5 L 8.5 75.5 L 8.5 79.5 A 5 5 90 0 0 13.5 84.5 L 17.5 84.5 L 17.5 86.5 L 27.5 86.5 L 27.5 84.5 L 35.5 84.5 L 35.5 90.5 L 35.5 96.5 L 35.5 100.5 A 4 4 90 0 1 31.5 104.5 L 27.5 104.5 L 18.5 104.5 L 17.5 104.5 L 17.5 106.5 L 9.5 106.5 L 9.5 104.5 L 8.5 104.5 L 4.5 104.5 A 4 4 90 0 1 0.5 100.5 L 0.5 96.5 z"
           style="fill:#FE994F;fill-opacity:1;stroke:#E86B0E;stroke-width:1;stroke-linecap:round;stroke-opacity:1;"
           id="path26" />
        <text
           style="font-size:10px;fill:#282828;font-family:sans-serif;text-anchor:start"
           id="text30"><tspan
             x="20"
             y="15"
             id="tspan28">note</tspan></text>
        <text
           style="font-size:6.666666666666667px;fill:#282828;font-family:sans-serif;text-anchor:end"
           id="text34"><tspan
             x="85"
             y="12"
             id="tspan32">value</tspan></text>
      </g>
    </g>
    <g
       transform="translate(14, 36) scale(0.5 0.5)"
       id="g54">
      <g
         style="isolation:isolate"
         id="g52">
        <g
           id="レイヤー_2"
           data-name="レイヤー 2">
          <g
             id="Icon">
            <rect
               width="42"
               height="42"
               rx="5"
               ry="5"
               style="fill:#292929;opacity:0.4;mix-blend-mode:multiply"
               id="rect40" />
            <path
               d="M30.56,29.8l-4.17-4.16h2.26a1,1,0,1,0,0-2.07H23.94a1.08,1.08,0,0,0-1.11,1v0s0,0,0,.06v4.64h0a1,1,0,1,0,2.08,0V27.08l4.19,4.19a1,1,0,0,0,1.46,0A1,1,0,0,0,30.56,29.8Z"
               style="fill:#fff"
               id="path42" />
            <path
               d="M19.17,24.6a1.08,1.08,0,0,0-1.11-1H13.35a1,1,0,1,0,0,2.07H15.6L11.44,29.8a1,1,0,0,0,1.47,1.47l4.18-4.19v2.26a1,1,0,1,0,2.08,0V24.7s0,0,0-.06A.08.08,0,0,1,19.17,24.6Z"
               style="fill:#fff"
               id="path44" />
            <path
               d="M23.94,20.5h4.7a1,1,0,1,0,0-2.08H26.39l4.17-4.16a1,1,0,0,0,0-1.47,1,1,0,0,0-1.46,0L24.91,17V14.72a1,1,0,1,0-2.08,0v4.64a.43.43,0,0,0,0,.05v.05A1.09,1.09,0,0,0,23.94,20.5Z"
               style="fill:#fff"
               id="path46" />
            <path
               d="M18.13,13.62a1.08,1.08,0,0,0-1,1.09V17l-4.18-4.19a1,1,0,0,0-1.47,0,1,1,0,0,0,0,1.46l4.16,4.17H13.35a1,1,0,1,0,0,2.08h4.71a1.09,1.09,0,0,0,1.11-1,.08.08,0,0,1,0,0s0,0,0-.06V14.71A1.07,1.07,0,0,0,18.13,13.62Z"
               style="fill:#fff"
               id="path48" />
          </g>
        </g>
      </g>
    </g>
  </g>
  <g
     transform="translate(146, 32)"
     id="g74">
    <g
       transform="scale(1.5, 1.5)"
       id="g72">
      <path
         d="m8.5 8.5 L 8.5 4.5 A 4 4 90 0 1 12.5 0.5 L 16.5 0.5 L 26.5 0.5 L 56.5 0.5 L 60.5 0.5 A 4 4 90 0 1 64.5 4.5 L 64.5 8.5 L 60.5 8.5 L 60.5 5.5 L 56.5 5.5 L 56.5 15.5 L 60.5 15.5 L 60.5 12.5 L 64.5 12.5 L 64.5 29.5 L 60.5 29.5 L 60.5 26.5 L 56.5 26.5 L 56.5 36.5 L 60.5 36.5 L 60.5 33.5 L 64.5 33.5 L 64.5 37.5 A 4 4 90 0 1 60.5 41.5 L 56.5 41.5 L 26.5 41.5 L 16.5 41.5 L 12.5 41.5 A 4 4 90 0 1 8.5 37.5 L 8.5 33.5 L 8.5 12.5 L 8.5 11.5 L 2.5 11.5 L 2.5 14.5 L 0.5 14.5 L 0.5 6.5 L 2.5 6.5 L 2.5 9.5 L 8.5 9.5 L 8.5 8.5 z"
         style="fill:#FF6EA1;fill-opacity:1;stroke:#FF2C76;stroke-width:1;stroke-linecap:round;stroke-opacity:1;"
         id="path58" />
      <text
         style="font-size:9px;fill:#282828;font-family:sans-serif;text-anchor:end"
         id="text62"><tspan
           x="54"
           y="23"
           id="tspan60">/</tspan></text>
      <text
         style="font-size:6px;fill:#282828;font-family:sans-serif;text-anchor:end"
         id="text66"><tspan
           x="54"
           y="12"
           id="tspan64" /></text>
      <text
         style="font-size:6px;fill:#282828;font-family:sans-serif;text-anchor:end"
         id="text70"><tspan
           x="54"
           y="33"
           id="tspan68" /></text>
    </g>
  </g>
  <g
     transform="translate(232, 32)"
     id="g84">
    <g
       transform="scale(1.5, 1.5)"
       id="g82">
      <path
         d="m8.5 0.5 L 68.5 0.5 L 68.5 20.5 L 8.5 20.5 L 8.5 12.5 L 8.5 11.5 L 2.5 11.5 L 2.5 14.5 L 0.5 14.5 L 0.5 6.5 L 2.5 6.5 L 2.5 9.5 L 8.5 9.5 L 8.5 8.5 z"
         style="fill:#FF6EA1;fill-opacity:1;stroke:#FF2C76;stroke-width:1;stroke-linecap:round;stroke-opacity:1;"
         id="path76" />
      <text
         style="font-size:10px;fill:#282828;font-family:sans-serif;text-anchor:start"
         id="text80"><tspan
           x="13"
           y="14"
           id="tspan78">1</tspan></text>
    </g>
  </g>
  <g
     transform="translate(232, 64)"
     id="g94">
    <g
       transform="scale(1.5, 1.5)"
       id="g92">
      <path
         d="m8.5 0.5 L 68.5 0.5 L 68.5 20.5 L 8.5 20.5 L 8.5 12.5 L 8.5 11.5 L 2.5 11.5 L 2.5 14.5 L 0.5 14.5 L 0.5 6.5 L 2.5 6.5 L 2.5 9.5 L 8.5 9.5 L 8.5 8.5 z"
         style="fill:#FF6EA1;fill-opacity:1;stroke:#FF2C76;stroke-width:1;stroke-linecap:round;stroke-opacity:1;"
         id="path86" />
      <text
         style="font-size:10px;fill:#282828;font-family:sans-serif;text-anchor:start"
         id="text90"><tspan
           x="13"
           y="14"
           id="tspan88">4</tspan></text>
    </g>
  </g>
  <g
     transform="translate(28, 64)"
     id="g104">
    <g
       transform="scale(1.5, 1.5)"
       id="g102">
      <path
         d="m0.5 8.5 L 0.5 4.5 A 4 4 90 0 1 4.5 0.5 L 8.5 0.5 L 8.5 2.5 L 18.5 2.5 L 18.5 0.5 L 38.5 0.5 L 42.5 0.5 A 4 4 90 0 1 46.5 4.5 L 46.5 8.5 L 46.5 12.5 L 46.5 16.5 A 4 4 90 0 1 42.5 20.5 L 38.5 20.5 L 18.5 20.5 L 17.5 20.5 L 17.5 22.5 L 9.5 22.5 L 9.5 20.5 L 8.5 20.5 L 4.5 20.5 A 4 4 90 0 1 0.5 16.5 L 0.5 12.5 z"
         style="fill:#C4C4C4;fill-opacity:1;stroke:#A0A0A0;stroke-width:1;stroke-linecap:round;stroke-opacity:1;"
         id="path96" />
      <text
         style="font-size:10px;fill:#282828;font-family:sans-serif;text-anchor:end"
         id="text100"><tspan
           x="36"
           y="14"
           id="tspan98">↓</tspan></text>
    </g>
  </g>
  <g
     transform="translate(28, 96)"
     id="g122">
    <g
       transform="scale(1.5, 1.5)"
       id="g120">
      <path
         d="m0.5 8.5 L 0.5 4.5 A 4 4 90 0 1 4.5 0.5 L 8.5 0.5 L 8.5 2.5 L 18.5 2.5 L 18.5 0.5 L 48.5 0.5 L 52.5 0.5 A 4 4 90 0 1 56.5 4.5 L 56.5 8.5 L 52.5 8.5 L 52.5 5.5 L 48.5 5.5 L 48.5 15.5 L 52.5 15.5 L 52.5 12.5 L 56.5 12.5 L 56.5 29.5 L 52.5 29.5 L 52.5 26.5 L 48.5 26.5 L 48.5 36.5 L 52.5 36.5 L 52.5 33.5 L 56.5 33.5 L 56.5 37.5 A 4 4 90 0 1 52.5 41.5 L 48.5 41.5 L 18.5 41.5 L 17.5 41.5 L 17.5 43.5 L 9.5 43.5 L 9.5 41.5 L 8.5 41.5 L 4.5 41.5 A 4 4 90 0 1 0.5 37.5 L 0.5 33.5 L 0.5 12.5 L 0.5 8.5 z"
         style="fill:#7CD622;fill-opacity:1;stroke:#57AD02;stroke-width:1;stroke-linecap:round;stroke-opacity:1;"
         id="path106" />
      <text
         style="font-size:10px;fill:#282828;font-family:sans-serif;text-anchor:end"
         id="text110"><tspan
           x="46"
           y="24"
           id="tspan108">pitch</tspan></text>
      <text
         style="font-size:6.666666666666667px;fill:#282828;font-family:sans-serif;text-anchor:end"
         id="text114"><tspan
           x="46"
           y="12"
           id="tspan112">name</tspan></text>
      <text
         style="font-size:6.666666666666667px;fill:#282828;font-family:sans-serif;text-anchor:end"
         id="text118"><tspan
           x="46"
           y="33"
           id="tspan116">octave</tspan></text>
    </g>
  </g>
  <g
     transform="translate(102, 96)"
     id="g132">
    <g
       transform="scale(1.5, 1.5)"
       id="g130">
      <path
         d="m8.5 0.5 L 68.5 0.5 L 68.5 20.5 L 8.5 20.5 L 8.5 12.5 L 8.5 11.5 L 2.5 11.5 L 2.5 14.5 L 0.5 14.5 L 0.5 6.5 L 2.5 6.5 L 2.5 9.5 L 8.5 9.5 L 8.5 8.5 z"
         style="fill:#7CD622;fill-opacity:1;stroke:#57AD02;stroke-width:1;stroke-linecap:round;stroke-opacity:1;"
         id="path124" />
      <text
         style="font-size:10px;fill:#282828;font-family:sans-serif;text-anchor:start"
         id="text128"><tspan
           x="13"
           y="14"
           id="tspan126">sol</tspan></text>
    </g>
  </g>
  <g
     transform="translate(102, 128)"
     id="g142">
    <g
       transform="scale(1.5, 1.5)"
       id="g140">
      <path
         d="m8.5 0.5 L 68.5 0.5 L 68.5 20.5 L 8.5 20.5 L 8.5 12.5 L 8.5 11.5 L 2.5 11.5 L 2.5 14.5 L 0.5 14.5 L 0.5 6.5 L 2.5 6.5 L 2.5 9.5 L 8.5 9.5 L 8.5 8.5 z"
         style="fill:#FF6EA1;fill-opacity:1;stroke:#FF2C76;stroke-width:1;stroke-linecap:round;stroke-opacity:1;"
         id="path134" />
      <text
         style="font-size:10px;fill:#282828;font-family:sans-serif;text-anchor:start"
         id="text138"><tspan
           x="13"
           y="14"
           id="tspan136">4</tspan></text>
    </g>
  </g>
</svg>

<svg xmlns="http://www.w3.org/2000/svg" width="335.5" height="223.5"><g transform="translate(0, 0)"><g transform="scale(1.5, 1.5)"><path d="m0.5 8.5 L 0.5 4.5 A 4 4 90 0 1 4.5 0.5 L 8.5 0.5 L 8.5 2.5 L 18.5 2.5 L 18.5 0.5 L 27.5 0.5 L 68.5 0.5 L 72.5 0.5 A 4 4 90 0 1 76.5 4.5 L 76.5 8.5 L 72.5 8.5 L 72.5 5.5 L 68.5 5.5 L 68.5 15.5 L 72.5 15.5 L 72.5 12.5 L 76.5 12.5 L 76.5 16.5 A 4 4 90 0 1 72.5 20.5 L 68.5 20.5 L 27.5 20.5 L 26.5 20.5 L 26.5 22.5 L 18.5 22.5 L 18.5 20.5 L 17.5 20.5 L 13.5 20.5 A 5 5 90 0 0 8.5 25.5 L 8.5 29.5 L 8.5 33.5 L 8.5 117.5 L 8.5 121.5 A 5 5 90 0 0 13.5 126.5 L 17.5 126.5 L 17.5 128.5 L 27.5 128.5 L 27.5 126.5 L 35.5 126.5 L 35.5 132.5 L 35.5 138.5 L 35.5 142.5 A 4 4 90 0 1 31.5 146.5 L 27.5 146.5 L 18.5 146.5 L 17.5 146.5 L 17.5 148.5 L 9.5 148.5 L 9.5 146.5 L 8.5 146.5 L 4.5 146.5 A 4 4 90 0 1 0.5 142.5 L 0.5 138.5 z" style="fill:#3EDCDD;fill-opacity:1;stroke:#1DBCBD;stroke-width:1;stroke-linecap:round;stroke-opacity:1;" /><text style="font-size:10px;fill:#282828;font-family:sans-serif;text-anchor:start"><tspan x="5" y="15">set instrument</tspan></text><text style="font-size:6.666666666666667px;fill:#282828;font-family:sans-serif;text-anchor:end"><tspan x="66" y="12"></tspan></text></g></g><g transform="translate(104, 0)"><g transform="scale(1.5, 1.5)"><path d="m8.5 0.5 L 118.5 0.5 L 118.5 20.5 L 8.5 20.5 L 8.5 12.5 L 8.5 11.5 L 2.5 11.5 L 2.5 14.5 L 0.5 14.5 L 0.5 6.5 L 2.5 6.5 L 2.5 9.5 L 8.5 9.5 L 8.5 8.5 z" style="fill:#3EDCDD;fill-opacity:1;stroke:#1DBCBD;stroke-width:1;stroke-linecap:round;stroke-opacity:1;" /><text style="font-size:10px;fill:#282828;font-family:sans-serif;text-anchor:start"><tspan x="13" y="14">guitar</tspan></text></g></g><g><g transform="translate(14, 32)"><g transform="scale(1.5, 1.5)"><path d="m0.5 8.5 L 0.5 4.5 A 4 4 90 0 1 4.5 0.5 L 8.5 0.5 L 8.5 2.5 L 18.5 2.5 L 18.5 0.5 L 27.5 0.5 L 87.5 0.5 L 91.5 0.5 A 4 4 90 0 1 95.5 4.5 L 95.5 8.5 L 91.5 8.5 L 91.5 5.5 L 87.5 5.5 L 87.5 15.5 L 91.5 15.5 L 91.5 12.5 L 95.5 12.5 L 95.5 16.5 A 4 4 90 0 1 91.5 20.5 L 87.5 20.5 L 27.5 20.5 L 26.5 20.5 L 26.5 22.5 L 18.5 22.5 L 18.5 20.5 L 17.5 20.5 L 13.5 20.5 A 5 5 90 0 0 8.5 25.5 L 8.5 29.5 L 8.5 33.5 L 8.5 75.5 L 8.5 79.5 A 5 5 90 0 0 13.5 84.5 L 17.5 84.5 L 17.5 86.5 L 27.5 86.5 L 27.5 84.5 L 35.5 84.5 L 35.5 90.5 L 35.5 96.5 L 35.5 100.5 A 4 4 90 0 1 31.5 104.5 L 27.5 104.5 L 18.5 104.5 L 17.5 104.5 L 17.5 106.5 L 9.5 106.5 L 9.5 104.5 L 8.5 104.5 L 4.5 104.5 A 4 4 90 0 1 0.5 100.5 L 0.5 96.5 z" style="fill:#FE994F;fill-opacity:1;stroke:#E86B0E;stroke-width:1;stroke-linecap:round;stroke-opacity:1;" /><text style="font-size:10px;fill:#282828;font-family:sans-serif;text-anchor:start"><tspan x="20" y="15">note</tspan></text><text style="font-size:6.666666666666667px;fill:#282828;font-family:sans-serif;text-anchor:end"><tspan x="85" y="12">value</tspan></text></g></g><g transform="translate(14, 36) scale(0.5 0.5)"><g style="isolation:isolate"><g id="レイヤー_2" data-name="レイヤー 2"><g id="Icon"><rect width="42" height="42" rx="5" ry="5" style="fill:#292929;opacity:0.4;mix-blend-mode:multiply"/><path d="M30.56,29.8l-4.17-4.16h2.26a1,1,0,1,0,0-2.07H23.94a1.08,1.08,0,0,0-1.11,1v0s0,0,0,.06v4.64h0a1,1,0,1,0,2.08,0V27.08l4.19,4.19a1,1,0,0,0,1.46,0A1,1,0,0,0,30.56,29.8Z" style="fill:#fff"/><path d="M19.17,24.6a1.08,1.08,0,0,0-1.11-1H13.35a1,1,0,1,0,0,2.07H15.6L11.44,29.8a1,1,0,0,0,1.47,1.47l4.18-4.19v2.26a1,1,0,1,0,2.08,0V24.7s0,0,0-.06A.08.08,0,0,1,19.17,24.6Z" style="fill:#fff"/><path d="M23.94,20.5h4.7a1,1,0,1,0,0-2.08H26.39l4.17-4.16a1,1,0,0,0,0-1.47,1,1,0,0,0-1.46,0L24.91,17V14.72a1,1,0,1,0-2.08,0v4.64a.43.43,0,0,0,0,.05v.05A1.09,1.09,0,0,0,23.94,20.5Z" style="fill:#fff"/><path d="M18.13,13.62a1.08,1.08,0,0,0-1,1.09V17l-4.18-4.19a1,1,0,0,0-1.47,0,1,1,0,0,0,0,1.46l4.16,4.17H13.35a1,1,0,1,0,0,2.08h4.71a1.09,1.09,0,0,0,1.11-1,.08.08,0,0,1,0,0s0,0,0-.06V14.71A1.07,1.07,0,0,0,18.13,13.62Z" style="fill:#fff"/></g></g></g></g></g><g transform="translate(146, 32)"><g transform="scale(1.5, 1.5)"><path d="m8.5 8.5 L 8.5 4.5 A 4 4 90 0 1 12.5 0.5 L 16.5 0.5 L 26.5 0.5 L 56.5 0.5 L 60.5 0.5 A 4 4 90 0 1 64.5 4.5 L 64.5 8.5 L 60.5 8.5 L 60.5 5.5 L 56.5 5.5 L 56.5 15.5 L 60.5 15.5 L 60.5 12.5 L 64.5 12.5 L 64.5 29.5 L 60.5 29.5 L 60.5 26.5 L 56.5 26.5 L 56.5 36.5 L 60.5 36.5 L 60.5 33.5 L 64.5 33.5 L 64.5 37.5 A 4 4 90 0 1 60.5 41.5 L 56.5 41.5 L 26.5 41.5 L 16.5 41.5 L 12.5 41.5 A 4 4 90 0 1 8.5 37.5 L 8.5 33.5 L 8.5 12.5 L 8.5 11.5 L 2.5 11.5 L 2.5 14.5 L 0.5 14.5 L 0.5 6.5 L 2.5 6.5 L 2.5 9.5 L 8.5 9.5 L 8.5 8.5 z" style="fill:#FF6EA1;fill-opacity:1;stroke:#FF2C76;stroke-width:1;stroke-linecap:round;stroke-opacity:1;" /><text style="font-size:9px;fill:#282828;font-family:sans-serif;text-anchor:end"><tspan x="54" y="23">/</tspan></text><text style="font-size:6px;fill:#282828;font-family:sans-serif;text-anchor:end"><tspan x="54" y="12"></tspan></text><text style="font-size:6px;fill:#282828;font-family:sans-serif;text-anchor:end"><tspan x="54" y="33"></tspan></text></g></g><g transform="translate(232, 32)"><g transform="scale(1.5, 1.5)"><path d="m8.5 0.5 L 68.5 0.5 L 68.5 20.5 L 8.5 20.5 L 8.5 12.5 L 8.5 11.5 L 2.5 11.5 L 2.5 14.5 L 0.5 14.5 L 0.5 6.5 L 2.5 6.5 L 2.5 9.5 L 8.5 9.5 L 8.5 8.5 z" style="fill:#FF6EA1;fill-opacity:1;stroke:#FF2C76;stroke-width:1;stroke-linecap:round;stroke-opacity:1;" /><text style="font-size:10px;fill:#282828;font-family:sans-serif;text-anchor:start"><tspan x="13" y="14">1</tspan></text></g></g><g transform="translate(232, 64)"><g transform="scale(1.5, 1.5)"><path d="m8.5 0.5 L 68.5 0.5 L 68.5 20.5 L 8.5 20.5 L 8.5 12.5 L 8.5 11.5 L 2.5 11.5 L 2.5 14.5 L 0.5 14.5 L 0.5 6.5 L 2.5 6.5 L 2.5 9.5 L 8.5 9.5 L 8.5 8.5 z" style="fill:#FF6EA1;fill-opacity:1;stroke:#FF2C76;stroke-width:1;stroke-linecap:round;stroke-opacity:1;" /><text style="font-size:10px;fill:#282828;font-family:sans-serif;text-anchor:start"><tspan x="13" y="14">4</tspan></text></g></g><g transform="translate(28, 64)"><g transform="scale(1.5, 1.5)"><path d="m0.5 8.5 L 0.5 4.5 A 4 4 90 0 1 4.5 0.5 L 8.5 0.5 L 8.5 2.5 L 18.5 2.5 L 18.5 0.5 L 38.5 0.5 L 42.5 0.5 A 4 4 90 0 1 46.5 4.5 L 46.5 8.5 L 46.5 12.5 L 46.5 16.5 A 4 4 90 0 1 42.5 20.5 L 38.5 20.5 L 18.5 20.5 L 17.5 20.5 L 17.5 22.5 L 9.5 22.5 L 9.5 20.5 L 8.5 20.5 L 4.5 20.5 A 4 4 90 0 1 0.5 16.5 L 0.5 12.5 z" style="fill:#C4C4C4;fill-opacity:1;stroke:#A0A0A0;stroke-width:1;stroke-linecap:round;stroke-opacity:1;" /><text style="font-size:10px;fill:#282828;font-family:sans-serif;text-anchor:end"><tspan x="36" y="14">↓</tspan></text></g></g><g transform="translate(28, 96)"><g transform="scale(1.5, 1.5)"><path d="m0.5 8.5 L 0.5 4.5 A 4 4 90 0 1 4.5 0.5 L 8.5 0.5 L 8.5 2.5 L 18.5 2.5 L 18.5 0.5 L 48.5 0.5 L 52.5 0.5 A 4 4 90 0 1 56.5 4.5 L 56.5 8.5 L 52.5 8.5 L 52.5 5.5 L 48.5 5.5 L 48.5 15.5 L 52.5 15.5 L 52.5 12.5 L 56.5 12.5 L 56.5 29.5 L 52.5 29.5 L 52.5 26.5 L 48.5 26.5 L 48.5 36.5 L 52.5 36.5 L 52.5 33.5 L 56.5 33.5 L 56.5 37.5 A 4 4 90 0 1 52.5 41.5 L 48.5 41.5 L 18.5 41.5 L 17.5 41.5 L 17.5 43.5 L 9.5 43.5 L 9.5 41.5 L 8.5 41.5 L 4.5 41.5 A 4 4 90 0 1 0.5 37.5 L 0.5 33.5 L 0.5 12.5 L 0.5 8.5 z" style="fill:#7CD622;fill-opacity:1;stroke:#57AD02;stroke-width:1;stroke-linecap:round;stroke-opacity:1;" /><text style="font-size:10px;fill:#282828;font-family:sans-serif;text-anchor:end"><tspan x="46" y="24">pitch</tspan></text><text style="font-size:6.666666666666667px;fill:#282828;font-family:sans-serif;text-anchor:end"><tspan x="46" y="12">name</tspan></text><text style="font-size:6.666666666666667px;fill:#282828;font-family:sans-serif;text-anchor:end"><tspan x="46" y="33">octave</tspan></text></g></g><g transform="translate(102, 96)"><g transform="scale(1.5, 1.5)"><path d="m8.5 0.5 L 68.5 0.5 L 68.5 20.5 L 8.5 20.5 L 8.5 12.5 L 8.5 11.5 L 2.5 11.5 L 2.5 14.5 L 0.5 14.5 L 0.5 6.5 L 2.5 6.5 L 2.5 9.5 L 8.5 9.5 L 8.5 8.5 z" style="fill:#7CD622;fill-opacity:1;stroke:#57AD02;stroke-width:1;stroke-linecap:round;stroke-opacity:1;" /><text style="font-size:10px;fill:#282828;font-family:sans-serif;text-anchor:start"><tspan x="13" y="14">sol</tspan></text></g></g><g transform="translate(102, 128)"><g transform="scale(1.5, 1.5)"><path d="m8.5 0.5 L 68.5 0.5 L 68.5 20.5 L 8.5 20.5 L 8.5 12.5 L 8.5 11.5 L 2.5 11.5 L 2.5 14.5 L 0.5 14.5 L 0.5 6.5 L 2.5 6.5 L 2.5 9.5 L 8.5 9.5 L 8.5 8.5 z" style="fill:#FF6EA1;fill-opacity:1;stroke:#FF2C76;stroke-width:1;stroke-linecap:round;stroke-opacity:1;" /><text style="font-size:10px;fill:#282828;font-family:sans-serif;text-anchor:start"><tspan x="13" y="14">4</tspan></text></g></g></svg>
